img/telegram.svg

<svg width="17" height="15" viewBox="0 0 17 15" fill="none" xmlns="http://www.w3.org/2000/svg">
<path d="M1.16866 6.45746C5.73205 4.34063 8.77503 2.94509 10.2976 2.27083C14.6448 0.345685 15.5481 0.0112675 16.1369 0.000107056C16.2664 -0.00220392 16.5559 0.0319646 16.7435 0.193996C16.9018 0.330811 16.9454 0.51563 16.9663 0.645347C16.9871 0.775063 17.0131 1.07056 16.9924 1.30145C16.7569 3.93683 15.7375 10.3322 15.2189 13.2839C14.9995 14.5328 14.5674 14.9516 14.1492 14.9926C13.2401 15.0816 12.5498 14.3529 11.6694 13.7385C10.2916 12.7769 9.5133 12.1783 8.17597 11.24C6.63045 10.1557 7.63235 9.55967 8.51313 8.58566C8.74364 8.33076 12.7489 4.45196 12.8264 4.10009C12.8361 4.05608 12.8451 3.89204 12.7536 3.80543C12.6621 3.71881 12.527 3.74843 12.4295 3.77199C12.2913 3.80538 10.0904 5.35425 5.82663 8.41859C5.2019 8.87533 4.63604 9.09787 4.12904 9.08621C3.57012 9.07335 2.49498 8.74974 1.69573 8.47313C0.715411 8.13385 -0.063727 7.95447 0.00411841 7.37827C0.0394565 7.07814 0.427638 6.77121 1.16866 6.45746Z" fill="white"/>
</svg>

<svg width="17" height="15" fill="none" xmlns="http://www.w3.org/2000/svg"><path d="M1.169 6.457c4.563-2.116 7.606-3.512 9.129-4.186C14.645.346 15.548.01 16.137 0c.13-.003.419.031.607.193.158.137.201.322.222.451.021.13.047.426.026.656-.235 2.636-1.255 9.031-1.773 11.983-.22 1.249-.652 1.668-1.07 1.709-.909.089-1.6-.64-2.48-1.255-1.377-.961-2.156-1.56-3.493-2.498-1.546-1.084-.544-1.68.337-2.654.23-.255 4.236-4.134 4.313-4.486.01-.044.02-.208-.072-.295-.092-.086-.227-.057-.324-.033-.139.033-2.34 1.582-6.603 4.647-.625.456-1.191.679-1.698.667-.559-.013-1.634-.336-2.433-.613-.98-.34-1.76-.519-1.692-1.095.035-.3.424-.607 1.165-.92Z" fill="#fff"/></svg>
